svg/fluentui-system-icons/ic_fluent_arrow_sync_checkmark_24_filled.svg

<svg width="24" height="24" viewBox="0 0 24 24" fill="none" xmlns="http://www.w3.org/2000/svg">
<path d="M16.2506 5.18011C15.9994 5.50947 16.0627 5.9801 16.3921 6.23128C18.1804 7.59515 19.25 9.70821 19.25 12C19.25 15.736 16.4242 18.812 12.7933 19.2071L12.7983 19.2021C12.5362 19.2309 12.2699 19.2456 12.0002 19.2456C11.5711 19.2456 11.1506 19.2083 10.742 19.1367L10.409 19.4697C10.1427 19.7359 10.1185 20.1526 10.3364 20.4462L10.409 20.5303L12.409 22.5303C12.7019 22.8232 13.1768 22.8232 13.4697 22.5303C13.7359 22.2641 13.7601 21.8474 13.5423 21.5538L13.4697 21.4697L12.7194 20.7208C17.2154 20.355 20.75 16.5903 20.75 12C20.75 9.23526 19.4582 6.68321 17.3017 5.03856C16.9724 4.78738 16.5017 4.85075 16.2506 5.18011ZM10.5303 1.46967C10.2374 1.76256 10.2374 2.23744 10.5303 2.53033L11.2796 3.27923C6.78409 3.6456 3.25 7.41008 3.25 12C3.25 14.6445 4.43126 17.0974 6.43081 18.7491C6.75016 19.0129 7.22289 18.9679 7.48669 18.6485C7.75048 18.3292 7.70545 17.8564 7.3861 17.5926C5.72793 16.2229 4.75 14.1922 4.75 12C4.75 8.26436 7.57532 5.18861 11.2057 4.79301L11.2002 4.79856C11.4629 4.7697 11.7298 4.75488 12.0002 4.75488C12.4291 4.75488 12.8493 4.79215 13.2577 4.86361L13.591 4.53033C13.8839 4.23744 13.8839 3.76256 13.591 3.46967L11.591 1.46967C11.2981 1.17678 10.8232 1.17678 10.5303 1.46967ZM18 12C18 15.3137 15.3137 18 12 18C8.68629 18 6 15.3137 6 12C6 8.68629 8.68629 6 12 6C15.3137 6 18 8.68629 18 12ZM15.0303 9.96967C14.7374 9.67678 14.2626 9.67678 13.9697 9.96967L11 12.9393L10.0303 11.9697C9.73744 11.6768 9.26256 11.6768 8.96967 11.9697C8.67678 12.2626 8.67678 12.7374 8.96967 13.0303L10.4697 14.5303C10.7626 14.8232 11.2374 14.8232 11.5303 14.5303L15.0303 11.0303C15.3232 10.7374 15.3232 10.2626 15.0303 9.96967Z" fill="#212121"/>
</svg>

<svg xmlns="http://www.w3.org/2000/svg" width="24" height="24"><path d="M16.25 5.18a.75.75 0 0 0 .142 1.051 7.251 7.251 0 0 1-3.599 12.976l.005-.005a7.305 7.305 0 0 1-2.056-.065l-.333.333a.75.75 0 0 0-.073.976l.073.084 2 2a.75.75 0 0 0 1.133-.976l-.072-.084-.75-.75a8.75 8.75 0 0 0 4.581-15.68.75.75 0 0 0-1.051.141Zm-5.72-3.71a.75.75 0 0 0 0 1.06l.75.75a8.75 8.75 0 0 0-4.85 15.47.75.75 0 1 0 .956-1.157 7.251 7.251 0 0 1 3.82-12.8l-.006.006a7.324 7.324 0 0 1 2.058.065l.333-.334a.75.75 0 0 0 0-1.06l-2-2a.75.75 0 0 0-1.06 0ZM18 12a6 6 0 1 1-12 0 6 6 0 0 1 12 0Zm-2.97-2.03a.75.75 0 0 0-1.06 0L11 12.94l-.97-.97a.75.75 0 1 0-1.06 1.06l1.5 1.5a.75.75 0 0 0 1.06 0l3.5-3.5a.75.75 0 0 0 0-1.06Z"/></svg>
